X:1
T: Lindsay Zobel
C:Muriel A Johnstone
R:Reel
%Q: 232
K:D
M:4/4
L:1/8
|:AG|F2 A2 A2 a2|gf ed B2 d2|A2 d2 B^d ef|g2 e2 e2 AG|
F2 A2 A2 a2|gf ed B2 d2|g2 ed cA ge|f2 d2 d2:|
fg|a2 Aa A2 aA|a3g fe dc|B2 gB A2 fA|f2 e2 e2 fg|
a2 Aa A2 aA|a3g fe dc|B2 GB Ac eg|f2 d2 d2 fg|
a2 Aa A2 aA|a2 Aa gf ed|B2 gB Ad fa|f2 e2 e2 AG|
F2 A2 A2 a2|gf ed B2 d2|g2 ed cA ge|f2 d2 d2||
